src/actions/24/mail-mark-unread.svg

<svg width="24" height="24" version="1.1" viewBox="0 0 24 24" xmlns="http://www.w3.org/2000/svg">
 <defs>
  <style id="current-color-scheme" type="text/css">.ColorScheme-Text {
        color:#363636;
      }</style>
 </defs>
 <path class="ColorScheme-Text" d="m6 5c-1.662 0-3 1.338-3 3v8c0 1.662 1.338 3 3 3h12c1.662 0 3-1.338 3-3v-8c0-1.662-1.338-3-3-3zm0 1h12c1.0692 0 1.9288 0.83294 1.9883 1.8867l-6.1289 4.6602c-1.0302 0.78348-2.6886 0.78347-3.7188 0l-6.1289-4.6602c0.059506-1.0538 0.9191-1.8867 1.9883-1.8867zm-2 3.1094 3.8008 2.8906-3.8008 2.8887zm16 0.00195v5.7773l-3.7969-2.8887 3.7969-2.8887zm-11.391 3.5039 0.7207 0.54883c1.4653 1.1144 3.8764 1.1144 5.3418 0l0.71875-0.54687 4.5977 3.4961c-0.05951 1.0538-0.9191 1.8867-1.9883 1.8867h-12c-1.0692 0-1.9288-0.83294-1.9883-1.8867l4.5977-3.498z" fill="currentColor"/>
</svg>

<svg xmlns="http://www.w3.org/2000/svg" width="24" height="24">
    <path fill="currentColor" d="M6 5C4.338 5 3 6.338 3 8v8c0 1.662 1.338 3 3 3h12c1.662 0 3-1.338 3-3V8c0-1.662-1.338-3-3-3zm0 1h12a1.99 1.99 0 0 1 1.988 1.887l-6.129 4.66c-1.03.783-2.688.783-3.718 0l-6.13-4.66A1.99 1.99 0 0 1 6 6zM4 9.11 7.8 12 4 14.889zm16 .001v5.778L16.203 12 20 9.111zM8.609 12.615l.72.55c1.466 1.113 3.877 1.113 5.343 0l.718-.548 4.598 3.496A1.99 1.99 0 0 1 18 18H6a1.99 1.99 0 0 1-1.989-1.887l4.598-3.498z" style="color:#050505;opacity:.7"/>
</svg>
